!!!OTL: SCHIER DREISSIG JAHRE BIST DU ALT
!!!ARE: Europa, Mitteleuropa, Deutschland
!!!SCT: B0585
!!!YEM: Copyright 1995, estate of Helmut Schaffrath.
**kern
*ICvox
*Ivox
*M4/4
*k[]
*C:
{4G
=1
4c
4c
4c
4e
=2
4c
4G
4B}
{4G
=3
4e
4c
8e
8d
8d
8B
=4
2c
4r}
{8c
8d
=5
4e
8e
8e
8f
8e
8d
8c
=6
4.d
8e
4d}
{8G
8B
=7
4d
8d
8d
8e
8d
8c
8B
=8
4c
4G
4E}
{4G
=9
4e
8e
8c
8e
8d
8d
8B
=10
2c
4r}
{8c
8d
=11
4e
8e
8e
8f
8e
8d
8c
=12
4.d
8e
4d}
{8G
8B
=13
4d
8d
8d
8e
8d
8c
8B
=14
4c
4G
4E}
{4G
=15
4e
8e
8c
8e
8d
8d
8B
=16
2c
4r}
==
!!!AGN: Staende -, Soldaten - Lied
!!!ONB: ESAC (Essen Associative Code) Database: BOEHME
!!!AMT: simple quadruple
!!!AIN: vox
!!!EED: Helmut Schaffrath
!!!EEV: 1.0
*-
